public/images/sign-in-background.svg

<?xml version="1.0" standalone="no"?>
<svg version="1.1" width="1000" height="1000" style="overflow: hidden; background-color: transparent;" xmlns="http://www.w3.org/2000/svg"><defs></defs><g id="t179391.07051408806wo-0" transform="matrix(1 0 0 1 0 0)" opacity="1"></g><g class="item" style="transform: translate(0px, 0px) rotate(0deg); transform-origin: 100px 100px; background-color: rgb(0, 0, 0);"><path d="M 0 0 L 200 0 L 200 200 L 0 200Z" fill="transparent"></path><path d="M 200 -1.1368683772161604e-14 L 200 100 L -1.1368683772161604e-14 1.1368683772161604e-14Z" fill="#253237"></path><path d="M 1.1368683772161604e-14 200 L 0 150 L 100.00000000000001 200Z" fill="#f7f9f9"></path></g><g class="item" style="transform: translate(0px, 200px) rotate(0deg); transform-origin: 100px 100px; background-color: rgb(0, 0, 0);"><path d="M 0 0 L 200 0 L 200 200 L 0 200Z" fill="transparent"></path><path d="M 100 100 A 100 100 0 0 1 -5.684341886080802e-15 1.7053025658242407e-14 L 100 -5.684341886080802e-15Z" fill="#6f9ceb"></path><path d="M 1.1368683772161604e-14 200 A 100 100 0 0 1 99.99999999999999 100 L 100.00000000000001 200Z" fill="#918ef4"></path><path d="M 100.00000000000001 100.00000000000001 A 100 100 0 0 1 200 -1.1368683772161604e-14 L 200 100Z" fill="#6f9ceb"></path><path d="M 200 100 A 100 100 0 0 1 100.00000000000003 200 L 100 100Z" fill="#f7f9f9"></path></g><g class="item" style="transform: translate(0px, 400px) rotate(180deg); transform-origin: 100px 100px; background-color: rgb(0, 0, 0);"><path d="M 0 0 L 200 0 L 200 200 L 0 200Z" fill="transparent"></path><path d="M 200 -1.1368683772161604e-14 L 1.1368683772161604e-14 200 L -1.1368683772161604e-14 1.1368683772161604e-14Z" fill="#918ef4"></path><path d="M 200 200 L -1.1368683772161604e-14 1.1368683772161604e-14 L 200 -1.1368683772161604e-14Z" fill="#18a058"></path></g><g class="item" style="transform: translate(0px, 600px) rotate(360deg); transform-origin: 100px 100px; background-color: rgb(0, 0, 0);"><path d="M 0 0 L 200 0 L 200 200 L 0 200Z" fill="transparent"></path><path d="M 100 -5.684341886080802e-15 L 100 50 A 50 50 0 1 1 50 0 L 100 -5.684341886080802e-15Z" fill="#6f9ceb"></path><path d="M 100 100 L 100 150 A 50 50 0 1 1 50 100 L 100 100Z" fill="#918ef4"></path><path d="M 200 -5.684341886080802e-15 L 200 50 A 50 50 0 1 1 150 0 L 200 -5.684341886080802e-15Z" fill="#18a058"></path><path d="M 200 100 L 200 150 A 50 50 0 1 1 150 100 L 200 100Z" fill="#6f9ceb"></path></g><g class="item" style="transform: translate(0px, 800px) rotate(0deg); transform-origin: 100px 100px; background-color: rgb(0, 0, 0);"><path d="M 0 0 L 200 0 L 200 200 L 0 200Z" fill="transparent"></path><path d="M 100 -5.684341886080802e-15 L -5.684341886080802e-15 5.684341886080802e-15 L 0 50.00000000000001Z" fill="#918ef4"></path><path d="M 200 -5.684341886080802e-15 L 100 5.684341886080802e-15 L 100 50.00000000000001Z" fill="#6f9ceb"></path><path d="M 100 100 L 50 150 L 100 200 L 50.00000000000001 200 L 0 150 L 50 100Z" fill="#918ef4"></path><path d="M 200 100 L 150 150 L 200 200 L 150 200 L 100 150 L 150 100Z" fill="#18a058"></path></g><g class="item" style="transform: translate(200px, 0px) rotate(180deg); transform-origin: 100px 100px; background-color: rgb(0, 0, 0);"><path d="M 0 0 L 200 0 L 200 200 L 0 200Z" fill="transparent"></path><path d="M 200 200 L 1.1368683772161604e-14 200 A 100 100 0 0 0 -1.1368683772161604e-14 1.1368683772161604e-14 L 200 -1.1368683772161604e-14Z" fill="#f7f9f9"></path><path d="M 133.33333333333334 133.33333333333331 L 66.66666666666667 133.33333333333334 L 100 66.66666666666667 L 133.33333333333331 66.66666666666666Z" fill="#918ef4"></path></g><g class="item" style="transform: translate(200px, 200px) rotate(270deg); transform-origin: 100px 100px; background-color: rgb(0, 0, 0);"><path d="M 0 0 L 200 0 L 200 200 L 0 200Z" fill="transparent"></path><path d="M 100 -5.684341886080802e-15 L 100 100 L 50.00000000000001 100 L 0 50.00000000000001 L 50 0Z" fill="#253237"></path><path d="M 100 100 L 100 200 L 50.00000000000001 200 L 0 150 L 50 100Z" fill="#f7f9f9"></path><path d="M 100 0 L 200 0 L 200 50 L 150 100 L 100 50Z" fill="#918ef4"></path><path d="M 100 100 L 200 100 L 200 150 L 150 200 L 100 150Z" fill="#f7f9f9"></path></g><g class="item" style="transform: translate(200px, 400px) rotate(180deg); transform-origin: 100px 100px; background-color: rgb(0, 0, 0);"><path d="M 0 0 L 200 0 L 200 200 L 0 200Z" fill="transparent"></path><path d="M 0 0 L 200 0 L 200 200 L 0 200Z" fill="#253237"></path><path d="M 66.66666666666667 133.33333333333334 L 66.66666666666666 66.66666666666667 L 133.33333333333334 100 L 133.33333333333334 133.33333333333331Z" fill="#18a058"></path></g><g class="item" style="transform: translate(200px, 600px) rotate(360deg); transform-origin: 100px 100px; background-color: rgb(0, 0, 0);"><path d="M 0 0 L 200 0 L 200 200 L 0 200Z" fill="transparent"></path><path d="M 200 -1.1368683772161604e-14 L 200 200 L 0 100.00000000000001 L -1.1368683772161604e-14 1.1368683772161604e-14Z" fill="#918ef4"></path><path d="M 66.66666666666667 100 L 66.66666666666667 133.33333333333334 L 0 100 L 0 66.66666666666667Z" fill="#6f9ceb"></path></g><g class="item" style="transform: translate(200px, 800px) rotate(360deg); transform-origin: 100px 100px; background-color: rgb(0, 0, 0);"><path d="M 0 0 L 200 0 L 200 200 L 0 200Z" fill="transparent"></path><path d="M 200 200 L 100.00000000000001 200 L -1.1368683772161604e-14 1.1368683772161604e-14 L 100 0Z" fill="#253237"></path><path d="M 66.66666666666667 66.66666666666667 L 100 66.66666666666667 A 33.333333333333336 33.333333333333336 0 0 1 100 133.33333333333334 L 66.66666666666667 133.33333333333334Z" fill="#6f9ceb"></path></g><g class="item" style="transform: translate(400px, 0px) rotate(270deg); transform-origin: 100px 100px; background-color: rgb(0, 0, 0);"><path d="M 0 0 L 200 0 L 200 200 L 0 200Z" fill="transparent"></path><path d="M 2.2737367544323207e-14 200.00000000000003 L -2.2737367544323207e-14 2.2737367544323207e-14 L 200 99.99999999999999 L 200.00000000000003 200Z" fill="#253237"></path><path d="M 66.66666666666667 133.33333333333334 L 66.66666666666666 66.66666666666667 L 133.33333333333334 100 L 133.33333333333334 133.33333333333331Z" fill="#6f9ceb"></path></g><g class="item" style="transform: translate(400px, 200px) rotate(360deg); transform-origin: 100px 100px; background-color: rgb(0, 0, 0);"><path d="M 0 0 L 200 0 L 200 200 L 0 200Z" fill="transparent"></path><path d="M 100 0 A 100 100 0 0 1 100.00000000000001 200 L 100 100Z" fill="#918ef4"></path><path d="M 5.684341886080802e-15 133.33333333333334 L 33.333333333333336 100 L -5.684341886080802e-15 66.66666666666667 L 33.33333333333333 66.66666666666667 L 66.66666666666667 100 L 33.333333333333336 133.33333333333334Z" fill="#6f9ceb"></path></g><g class="item" style="transform: translate(400px, 400px) rotate(360deg); transform-origin: 100px 100px; background-color: rgb(0, 0, 0);"><path d="M 0 0 L 200 0 L 200 200 L 0 200Z" fill="transparent"></path><path d="M 100 100 L 0 100.00000000000001 L 100 0 L 200 100Z" fill="#f7f9f9"></path><path d="M 100 100 L 0 100.00000000000001 L 100 0 L 200 100Z" fill="#6f9ceb"></path></g><g class="item" style="transform: translate(400px, 600px) rotate(360deg); transform-origin: 100px 100px; background-color: rgb(0, 0, 0);"><path d="M 0 0 L 200 0 L 200 200 L 0 200Z" fill="transparent"></path><path d="M 100 100 L 5.684341886080802e-15 100 L 0 50.00000000000001 L 50 0 L 100 50Z" fill="#253237"></path><path d="M 100 200 L 5.684341886080802e-15 200 L 0 150 L 50 100 L 100 150Z" fill="#18a058"></path><path d="M 200 -5.684341886080802e-15 L 200 100 L 150 100 L 100 50.00000000000001 L 150 0Z" fill="#f7f9f9"></path><path d="M 200 200 L 100 200 L 100 150 L 150 100 L 200 150Z" fill="#f7f9f9"></path></g><g class="item" style="transform: translate(400px, 800px) rotate(270deg); transform-origin: 100px 100px; background-color: rgb(0, 0, 0);"><path d="M 0 0 L 200 0 L 200 200 L 0 200Z" fill="transparent"></path><path d="M 200 -1.1368683772161604e-14 L 100.00000000000001 200 L -1.1368683772161604e-14 1.1368683772161604e-14Z" fill="#6f9ceb"></path><path d="M 66.66666666666667 133.33333333333334 L 133.33333333333334 133.33333333333334 L 133.33333333333334 200 L 66.66666666666667 200Z" fill="#18a058"></path></g><g class="item" style="transform: translate(600px, 0px) rotate(360deg); transform-origin: 100px 100px; background-color: rgb(0, 0, 0);"><path d="M 0 0 L 200 0 L 200 200 L 0 200Z" fill="transparent"></path><path d="M 50.00000000000001 100 L 5.684341886080802e-15 100 L -5.684341886080802e-15 5.684341886080802e-15 L 50 0Z" fill="#f7f9f9"></path><path d="M 100 150 L 100 200 L 5.684341886080802e-15 200 L 0 150Z" fill="#f7f9f9"></path><path d="M 150 0 L 200 0 L 200 100 L 150 100Z" fill="#f7f9f9"></path><path d="M 200 150 L 200 200 L 100 200 L 100 150Z" fill="#f7f9f9"></path></g><g class="item" style="transform: translate(600px, 200px) rotate(360deg); transform-origin: 100px 100px; background-color: rgb(0, 0, 0);"><path d="M 0 0 L 200 0 L 200 200 L 0 200Z" fill="transparent"></path><path d="M 2.2737367544323207e-14 200.00000000000003 L 100 100 L -2.2737367544323207e-14 2.2737367544323207e-14 L 99.99999999999999 0 L 200 99.99999999999999 L 100.00000000000003 200Z" fill="#f7f9f9"></path><path d="M 66.66666666666667 66.66666666666667 L 100 66.66666666666667 L 100 133.33333333333334 L 66.66666666666667 133.33333333333334Z" fill="#f7f9f9"></path></g><g class="item" style="transform: translate(600px, 400px) rotate(360deg); transform-origin: 100px 100px; background-color: rgb(0, 0, 0);"><path d="M 0 0 L 200 0 L 200 200 L 0 200Z" fill="transparent"></path><path d="M 0 0 L 100 100 L 200 0 L 200 100 L 100 200 L 0 100Z" fill="#6f9ceb"></path><path d="M 66.66666666666667 100 L 66.66666666666666 66.66666666666667 L 133.33333333333331 66.66666666666666 L 133.33333333333334 100Z" fill="#918ef4"></path></g><g class="item" style="transform: translate(600px, 600px) rotate(90deg); transform-origin: 100px 100px; background-color: rgb(0, 0, 0);"><path d="M 0 0 L 200 0 L 200 200 L 0 200Z" fill="transparent"></path><path d="M 50 0 L 100 0 L 50 100 L 0 100Z" fill="#918ef4"></path><path d="M 50 100 L 100 100 L 50 200 L 0 200Z" fill="#f7f9f9"></path><path d="M 150 100 L 100 100 L 150 0 L 200 -5.684341886080802e-15Z" fill="#18a058"></path><path d="M 150 200 L 100 200 L 150 100 L 200 100Z" fill="#f7f9f9"></path></g><g class="item" style="transform: translate(600px, 800px) rotate(180deg); transform-origin: 100px 100px; background-color: rgb(0, 0, 0);"><path d="M 0 0 L 200 0 L 200 200 L 0 200Z" fill="transparent"></path><path d="M 200 100 A 100 100 0 1 0 200 100.02Z" fill="#f7f9f9"></path><path d="M 66.66666666666667 66.66666666666667 L 133.33333333333334 66.66666666666667 L 100 133.33333333333334 L 66.66666666666667 133.33333333333334Z" fill="#918ef4"></path></g><g class="item" style="transform: translate(800px, 0px) rotate(180deg); transform-origin: 100px 100px; background-color: rgb(0, 0, 0);"><path d="M 0 0 L 200 0 L 200 200 L 0 200Z" fill="transparent"></path><path d="M 0 0 L 0 100 L 50 50 L 100 100 L 100 0Z" fill="#253237"></path><path d="M 1.1368683772161604e-14 200 L 100.00000000000001 200 L 50 150 L 100 100 L -1.1368683772161604e-14 100.00000000000001Z" fill="#918ef4"></path><path d="M 200 100 L 200 -5.684341886080802e-15 L 150 50 L 100 5.684341886080802e-15 L 100 100Z" fill="#918ef4"></path><path d="M 100 100 L 100 200 L 150 150 L 200 200 L 200 100Z" fill="#6f9ceb"></path></g><g class="item" style="transform: translate(800px, 200px) rotate(90deg); transform-origin: 100px 100px; background-color: rgb(0, 0, 0);"><path d="M 0 0 L 200 0 L 200 200 L 0 200Z" fill="transparent"></path><path d="M 100 -5.684341886080802e-15 A 50 50 0 0 1 -5.684341886080802e-15 1.1368683772161604e-14 L 50 0Z" fill="#6f9ceb"></path><path d="M 0 100 A 50 50 0 0 1 6.123233995736767e-15 200 L 0 150Z" fill="#18a058"></path><path d="M 200 -5.684341886080802e-15 A 50 50 0 0 1 100 1.1368683772161604e-14 L 150 0Z" fill="#f7f9f9"></path><path d="M 100 100 A 50 50 0 0 1 100.00000000000001 200 L 100 150Z" fill="#f7f9f9"></path></g><g class="item" style="transform: translate(800px, 400px) rotate(0deg); transform-origin: 100px 100px; background-color: rgb(0, 0, 0);"><path d="M 0 0 L 200 0 L 200 200 L 0 200Z" fill="transparent"></path><path d="M 0 100.00000000000003 A 100 100 0 0 1 200 99.99999999999997 L 100 100Z" fill="#918ef4"></path><path d="M 66.66666666666667 33.333333333333336 L 66.66666666666666 5.684341886080802e-15 L 133.33333333333331 -5.684341886080802e-15 L 133.33333333333334 33.33333333333333Z" fill="#18a058"></path></g><g class="item" style="transform: translate(800px, 600px) rotate(180deg); transform-origin: 100px 100px; background-color: rgb(0, 0, 0);"><path d="M 0 0 L 200 0 L 200 200 L 0 200Z" fill="transparent"></path><path d="M 100 0 A 100 100 0 1 1 0 100.00000000000003 L 100 100Z" fill="#f7f9f9"></path><path d="M 100 50 A 50 50 0 1 1 49.999999999999986 0 L 50 50Z" fill="#918ef4"></path></g><g class="item" style="transform: translate(800px, 800px) rotate(180deg); transform-origin: 100px 100px; background-color: rgb(0, 0, 0);"><path d="M 0 0 L 200 0 L 200 200 L 0 200Z" fill="transparent"></path><path d="M 100 100 A 100 100 0 0 1 -5.684341886080802e-15 1.7053025658242407e-14 L 5.684341886080802e-15 100Z" fill="#253237"></path><path d="M 1.1368683772161604e-14 200 A 100 100 0 0 1 99.99999999999999 100 L -1.1368683772161604e-14 100.00000000000001Z" fill="#f7f9f9"></path><path d="M 200 100 A 100 100 0 0 1 100 1.7053025658242407e-14 L 100 100Z" fill="#f7f9f9"></path><path d="M 200 200 A 100 100 0 0 1 100 100.00000000000003 L 100 200Z" fill="#253237"></path></g></svg>

<svg width="1000" height="1000" style="overflow:hidden;background-color:transparent" xmlns="http://www.w3.org/2000/svg"><g/><g class="item" style="transform:translate(0,0) rotate(0deg);transform-origin:100px 100px;background-color:#000"><path d="M0 0h200v200H0Z" fill="transparent"/><path d="M200 0v100L0 0Z" fill="#253237"/><path d="M0 200v-50l100 50Z" fill="#f7f9f9"/></g><g class="item" style="transform:translate(0,200px) rotate(0deg);transform-origin:100px 100px;background-color:#000"><path d="M0 0h200v200H0Z" fill="transparent"/><path d="M100 100A100 100 0 0 1 0 0h100Z" fill="#6f9ceb"/><path d="M0 200a100 100 0 0 1 100-100v100Z" fill="#918ef4"/><path d="M100 100A100 100 0 0 1 200 0v100Z" fill="#6f9ceb"/><path d="M200 100a100 100 0 0 1-100 100V100Z" fill="#f7f9f9"/></g><g class="item" style="transform:translate(0,400px) rotate(180deg);transform-origin:100px 100px;background-color:#000"><path d="M0 0h200v200H0Z" fill="transparent"/><path d="M200 0 0 200V0Z" fill="#918ef4"/><path d="M200 200 0 0h200Z" fill="#18a058"/></g><g class="item" style="transform:translate(0,600px) rotate(360deg);transform-origin:100px 100px;background-color:#000"><path d="M0 0h200v200H0Z" fill="transparent"/><path d="M100 0v50A50 50 0 1 1 50 0h50Z" fill="#6f9ceb"/><path d="M100 100v50a50 50 0 1 1-50-50h50Z" fill="#918ef4"/><path d="M200 0v50a50 50 0 1 1-50-50h50Z" fill="#18a058"/><path d="M200 100v50a50 50 0 1 1-50-50h50Z" fill="#6f9ceb"/></g><g class="item" style="transform:translate(0,800px) rotate(0deg);transform-origin:100px 100px;background-color:#000"><path d="M0 0h200v200H0Z" fill="transparent"/><path d="M100 0H0v50Z" fill="#918ef4"/><path d="M200 0H100v50Z" fill="#6f9ceb"/><path d="m100 100-50 50 50 50H50L0 150l50-50Z" fill="#918ef4"/><path d="m200 100-50 50 50 50h-50l-50-50 50-50Z" fill="#18a058"/></g><g class="item" style="transform:translate(200px,0) rotate(180deg);transform-origin:100px 100px;background-color:#000"><path d="M0 0h200v200H0Z" fill="transparent"/><path d="M200 200H0A100 100 0 0 0 0 0h200Z" fill="#f7f9f9"/><path d="M133.333 133.333H66.667L100 66.667h33.333Z" fill="#918ef4"/></g><g class="item" style="transform:translate(200px,200px) rotate(270deg);transform-origin:100px 100px;background-color:#000"><path d="M0 0h200v200H0Z" fill="transparent"/><path d="M100 0v100H50L0 50 50 0Z" fill="#253237"/><path d="M100 100v100H50L0 150l50-50Z" fill="#f7f9f9"/><path d="M100 0h100v50l-50 50-50-50Z" fill="#918ef4"/><path d="M100 100h100v50l-50 50-50-50Z" fill="#f7f9f9"/></g><g class="item" style="transform:translate(200px,400px) rotate(180deg);transform-origin:100px 100px;background-color:#000"><path d="M0 0h200v200H0Z" fill="transparent"/><path d="M0 0h200v200H0Z" fill="#253237"/><path d="M66.667 133.333V66.667L133.333 100v33.333Z" fill="#18a058"/></g><g class="item" style="transform:translate(200px,600px) rotate(360deg);transform-origin:100px 100px;background-color:#000"><path d="M0 0h200v200H0Z" fill="transparent"/><path d="M200 0v200L0 100V0Z" fill="#918ef4"/><path d="M66.667 100v33.333L0 100V66.667Z" fill="#6f9ceb"/></g><g class="item" style="transform:translate(200px,800px) rotate(360deg);transform-origin:100px 100px;background-color:#000"><path d="M0 0h200v200H0Z" fill="transparent"/><path d="M200 200H100L0 0h100Z" fill="#253237"/><path d="M66.667 66.667H100a33.333 33.333 0 0 1 0 66.666H66.667Z" fill="#6f9ceb"/></g><g class="item" style="transform:translate(400px,0) rotate(270deg);transform-origin:100px 100px;background-color:#000"><path d="M0 0h200v200H0Z" fill="transparent"/><path d="M0 200V0l200 100v100Z" fill="#253237"/><path d="M66.667 133.333V66.667L133.333 100v33.333Z" fill="#6f9ceb"/></g><g class="item" style="transform:translate(400px,200px) rotate(360deg);transform-origin:100px 100px;background-color:#000"><path d="M0 0h200v200H0Z" fill="transparent"/><path d="M100 0a100 100 0 0 1 0 200V100Z" fill="#918ef4"/><path d="M0 133.333 33.333 100 0 66.667h33.333L66.667 100l-33.334 33.333Z" fill="#6f9ceb"/></g><g class="item" style="transform:translate(400px,400px) rotate(360deg);transform-origin:100px 100px;background-color:#000"><path d="M0 0h200v200H0Z" fill="transparent"/><path d="M100 100H0L100 0l100 100Z" fill="#f7f9f9"/><path d="M100 100H0L100 0l100 100Z" fill="#6f9ceb"/></g><g class="item" style="transform:translate(400px,600px) rotate(360deg);transform-origin:100px 100px;background-color:#000"><path d="M0 0h200v200H0Z" fill="transparent"/><path d="M100 100H0V50L50 0l50 50Z" fill="#253237"/><path d="M100 200H0v-50l50-50 50 50Z" fill="#18a058"/><path d="M200 0v100h-50l-50-50 50-50Zm0 200H100v-50l50-50 50 50Z" fill="#f7f9f9"/></g><g class="item" style="transform:translate(400px,800px) rotate(270deg);transform-origin:100px 100px;background-color:#000"><path d="M0 0h200v200H0Z" fill="transparent"/><path d="M200 0 100 200 0 0Z" fill="#6f9ceb"/><path d="M66.667 133.333h66.666V200H66.667Z" fill="#18a058"/></g><g class="item" style="transform:translate(600px,0) rotate(360deg);transform-origin:100px 100px;background-color:#000"><path d="M0 0h200v200H0Z" fill="transparent"/><path d="M50 100H0V0h50Zm50 50v50H0v-50ZM150 0h50v100h-50Zm50 150v50H100v-50Z" fill="#f7f9f9"/></g><g class="item" style="transform:translate(600px,200px) rotate(360deg);transform-origin:100px 100px;background-color:#000"><path d="M0 0h200v200H0Z" fill="transparent"/><path d="m0 200 100-100L0 0h100l100 100-100 100Z" fill="#f7f9f9"/><path d="M66.667 66.667H100v66.666H66.667Z" fill="#f7f9f9"/></g><g class="item" style="transform:translate(600px,400px) rotate(360deg);transform-origin:100px 100px;background-color:#000"><path d="M0 0h200v200H0Z" fill="transparent"/><path d="m0 0 100 100L200 0v100L100 200 0 100Z" fill="#6f9ceb"/><path d="M66.667 100V66.667h66.666V100Z" fill="#918ef4"/></g><g class="item" style="transform:translate(600px,600px) rotate(90deg);transform-origin:100px 100px;background-color:#000"><path d="M0 0h200v200H0Z" fill="transparent"/><path d="M50 0h50L50 100H0Z" fill="#918ef4"/><path d="M50 100h50L50 200H0Z" fill="#f7f9f9"/><path d="M150 100h-50L150 0h50Z" fill="#18a058"/><path d="M150 200h-50l50-100h50Z" fill="#f7f9f9"/></g><g class="item" style="transform:translate(600px,800px) rotate(180deg);transform-origin:100px 100px;background-color:#000"><path d="M0 0h200v200H0Z" fill="transparent"/><path d="M200 100a100 100 0 1 0 0 .02Z" fill="#f7f9f9"/><path d="M66.667 66.667h66.666L100 133.333H66.667Z" fill="#918ef4"/></g><g class="item" style="transform:translate(800px,0) rotate(180deg);transform-origin:100px 100px;background-color:#000"><path d="M0 0h200v200H0Z" fill="transparent"/><path d="M0 0v100l50-50 50 50V0Z" fill="#253237"/><path d="M0 200h100l-50-50 50-50H0Zm200-100V0l-50 50-50-50v100Z" fill="#918ef4"/><path d="M100 100v100l50-50 50 50V100Z" fill="#6f9ceb"/></g><g class="item" style="transform:translate(800px,200px) rotate(90deg);transform-origin:100px 100px;background-color:#000"><path d="M0 0h200v200H0Z" fill="transparent"/><path d="M100 0A50 50 0 0 1 0 0h50Z" fill="#6f9ceb"/><path d="M0 100a50 50 0 0 1 0 100v-50Z" fill="#18a058"/><path d="M200 0a50 50 0 0 1-100 0h50ZM100 100a50 50 0 0 1 0 100v-50Z" fill="#f7f9f9"/></g><g class="item" style="transform:translate(800px,400px) rotate(0deg);transform-origin:100px 100px;background-color:#000"><path d="M0 0h200v200H0Z" fill="transparent"/><path d="M0 100a100 100 0 0 1 200 0H100Z" fill="#918ef4"/><path d="M66.667 33.333V0h66.666v33.333Z" fill="#18a058"/></g><g class="item" style="transform:translate(800px,600px) rotate(180deg);transform-origin:100px 100px;background-color:#000"><path d="M0 0h200v200H0Z" fill="transparent"/><path d="M100 0A100 100 0 1 1 0 100h100Z" fill="#f7f9f9"/><path d="M100 50A50 50 0 1 1 50 0v50Z" fill="#918ef4"/></g><g class="item" style="transform:translate(800px,800px) rotate(180deg);transform-origin:100px 100px;background-color:#000"><path d="M0 0h200v200H0Z" fill="transparent"/><path d="M100 100A100 100 0 0 1 0 0v100Z" fill="#253237"/><path d="M0 200a100 100 0 0 1 100-100H0Zm200-100A100 100 0 0 1 100 0v100Z" fill="#f7f9f9"/><path d="M200 200a100 100 0 0 1-100-100v100Z" fill="#253237"/></g></svg>
